docs/svgs/splitscreen-sharp.svg

<svg xmlns="http://www.w3.org/2000/svg" height="24" width="24"><path d="M6 9h12V4H6Zm-2 2V2h16v9Zm2 9h12v-5H6Zm-2 2v-9h16v9ZM6 9V4v5Zm0 11v-5 5Z"/></svg>

<?xml version="1.0" encoding="UTF-8"?>
<svg xmlns="http://www.w3.org/2000/svg" xmlns:xlink="http://www.w3.org/1999/xlink" width="24px" height="24px" viewBox="0 0 24 24" version="1.1">
<g id="surface1">
<path style=" stroke:none;fill-rule:nonzero;fill:rgb(0%,0%,0%);fill-opacity:1;" d="M 6 9 L 18 9 L 18 4 L 6 4 Z M 4 11 L 4 2 L 20 2 L 20 11 Z M 6 20 L 18 20 L 18 15 L 6 15 Z M 4 22 L 4 13 L 20 13 L 20 22 Z M 6 9 L 6 4 Z M 6 20 L 6 15 Z M 6 20 "/>
</g>
</svg>
